X:1
T:[ID 6-75]
T:[ID 6-75]
T:Bezeichnung standardisiert: Polonaise Polnoise 20.
T:Urheber unbekannt Datum in der hier transkribierten schriftlichen Quelle: 1775
C:Urheber unbekannt
C:Datum in der hier transkribierten schriftlichen Quelle: 1775
L:1/8
M:3/4
K:A
V:1 treble 
V:1
 A/G/A/B/ c2 c2 | cd/B/ c4 | CA AG/F/ G2 | GB BA/G/ A2 | AB/c/ BADC | cd/B/ ce/d/ c2 | %6
 c/B/c/A/ dcBA | G/B/A/E/ A,2 A,2 :: c/B/A/B/ c/B/A/B/ c/B/A/B/ | cc/d/ ed/c/ d2 | %10
 ^d/c/B/c/ d/c/B/c/ d/c/B/c/ | ^dd/e/ fe/d/ e2 | CA AG/F/ G2 | GB BA/G/ A2 | AB/c/ BADC | %15
 cd/B/ ce/d/ c2 | c/B/c/A/ dcBA | G/B/A/E/ A,2 A,2 :| %18

